source/assets/zoom_reset_disabled.svg

<svg height="22.5" viewBox="0 0 5.8208332 5.9531251" width="22" xmlns="http://www.w3.org/2000/svg"><path d="m7.1933565 4.2161952a2.9411273 2.9588449 0 0 1 -2.9358783 2.9629852 2.9411273 2.9588449 0 0 1 -2.9463665-2.9524298 2.9411273 2.9588449 0 0 1 2.9336225-2.9652456 2.9411273 2.9588449 0 0 1 2.9486125 2.9501596l-2.9411146.00868z" fill="#b3b3b3" fill-rule="evenodd" stroke-width=".264583" transform="matrix(-.79577884 0 0 .78850687 6.84335 -.841573)"/><path d="m-3.769284-4.603346h2.24154v.834061h-2.24154z" fill="#b3b3b3" stroke-width=".330272" transform="matrix(.7031697 -.71102206 -.7031697 -.71102206 0 0)"/><path d="m-1.5091094 2.4834796a1.9504057 1.9442246 0 0 1 -1.9469316 1.9469363 1.9504057 1.9442246 0 0 1 -1.9538733-1.9400138 1.9504057 1.9442246 0 0 1 1.9454312-1.94842601 1.9504057 1.9442246 0 0 1 1.9553672 1.93851761l-1.9503973.0057z" fill="#fff" stroke-width=".288261" transform="scale(-1 1)"/><g fill="#b3b3b3" stroke-width=".264583"><path d="m-1.4074227-3.0219567-.8393933.484624v-.969248z" transform="matrix(-1.8436671 0 0 -1.6647314 -1.085709 -2.552679)"/><path d="m-1.4074227-3.0219567-.8393933.484624v-.969248z" transform="matrix(1.8436671 0 0 1.6647314 7.994447 7.508696)"/></g></svg>

<?xml version="1.0" encoding="UTF-8" standalone="no"?>
<svg
   xmlns:osb="http://www.openswatchbook.org/uri/2009/osb"
   xmlns:dc="http://purl.org/dc/elements/1.1/"
   xmlns:cc="http://creativecommons.org/ns#"
   xmlns:rdf="http://www.w3.org/1999/02/22-rdf-syntax-ns#"
   xmlns:svg="http://www.w3.org/2000/svg"
   xmlns="http://www.w3.org/2000/svg"
   xmlns:xlink="http://www.w3.org/1999/xlink"
   id="svg5604"
   version="1.1"
   viewBox="0 0 5.8208332 5.9531251"
   height="22.5"
   width="22">
  <defs
     id="defs5598">
    <linearGradient
       osb:paint="solid"
       id="linearGradient6175">
      <stop
         id="stop6173"
         offset="0"
         style="stop-color:#ffffff;stop-opacity:1;" />
    </linearGradient>
    <linearGradient
       gradientTransform="translate(0,-2.5135417)"
       gradientUnits="userSpaceOnUse"
       y2="4.2675834"
       x2="4.7837601"
       y1="4.2675834"
       x1="3.7325141"
       id="linearGradient6177"
       xlink:href="#linearGradient6175" />
  </defs>
  <metadata
     id="metadata5601">
    <rdf:RDF>
      <cc:Work
         rdf:about="">
        <dc:format>image/svg+xml</dc:format>
        <dc:type
           rdf:resource="http://purl.org/dc/dcmitype/StillImage" />
        <dc:title></dc:title>
      </cc:Work>
    </rdf:RDF>
  </metadata>
  <g
     transform="translate(0,-291.04686)"
     id="layer1" />
  <rect
     y="3.8624401"
     x="4.7837601"
     height="5.267334e-007"
     width="0"
     id="rect6171"
     style="opacity:1;fill:url(#linearGradient6177);fill-opacity:1;fill-rule:evenodd;stroke-width:0.26458332" />
  <g
     style="fill:#b3b3b3"
     transform="matrix(-0.79577884,0,0,0.78850687,6.8433496,-0.84157285)"
     id="g4511">
    <g
       style="fill:#b3b3b3"
       id="g4505">
      <path
         d="M 7.1933565,4.2161952 A 2.9411273,2.9588449 0 0 1 4.2574782,7.1791804 2.9411273,2.9588449 0 0 1 1.3111117,4.2267506 2.9411273,2.9588449 0 0 1 4.2447342,1.261505 2.9411273,2.9588449 0 0 1 7.1933467,4.2116646 l -2.9411146,0.00868 z"
         id="path6227"
         style="fill:#b3b3b3;fill-opacity:1;fill-rule:evenodd;stroke-width:0.26458332" />
    </g>
  </g>
  <rect
     transform="matrix(0.7031697,-0.71102206,-0.7031697,-0.71102206,0,0)"
     y="-4.6033459"
     x="-3.7692842"
     height="0.83406138"
     width="2.2415404"
     id="rect3755"
     style="opacity:1;fill:#b3b3b3;fill-opacity:1;stroke-width:0.33027151" />
  <path
     transform="scale(-1,1)"
     d="M -1.5091094,2.4834796 A 1.9504057,1.9442246 0 0 1 -3.456041,4.4304159 1.9504057,1.9442246 0 0 1 -5.4099143,2.4904021 1.9504057,1.9442246 0 0 1 -3.4644831,0.54197609 1.9504057,1.9442246 0 0 1 -1.5091159,2.4804937 l -1.9503973,0.0057 z"
     id="path3771"
     style="fill:#ffffff;fill-opacity:1;stroke-width:0.28826112" />
  <path
     transform="matrix(-1.8436671,0,0,-1.6647314,-1.0857094,-2.5526794)"
     d="m -1.4074227,-3.0219567 -0.8393933,0.484624 v -0.969248 z"
     id="path829-5"
     style="fill:#b3b3b3;fill-opacity:1;stroke-width:0.26458332" />
  <path
     transform="matrix(1.8436671,0,0,1.6647314,7.9944474,7.5086956)"
     d="m -1.4074227,-3.0219567 -0.8393933,0.484624 v -0.969248 z"
     id="path829-5-4"
     style="fill:#b3b3b3;fill-opacity:1;stroke-width:0.26458332" />
</svg>
